public/icon/link.svg

<svg width="20" height="20" viewBox="0 0 20 20" fill="none" xmlns="http://www.w3.org/2000/svg">
<path d="M15.0001 9.0165C14.7791 9.0165 14.5671 9.1043 14.4108 9.26058C14.2545 9.41686 14.1667 9.62882 14.1667 9.84984V15.8332C14.1667 16.0542 14.079 16.2661 13.9227 16.4224C13.7664 16.5787 13.5544 16.6665 13.3334 16.6665H4.16675C3.94573 16.6665 3.73377 16.5787 3.57749 16.4224C3.42121 16.2661 3.33341 16.0542 3.33341 15.8332V6.6665C3.33341 6.44549 3.42121 6.23353 3.57749 6.07725C3.73377 5.92097 3.94573 5.83317 4.16675 5.83317H10.1501C10.3711 5.83317 10.5831 5.74537 10.7393 5.58909C10.8956 5.43281 10.9834 5.22085 10.9834 4.99984C10.9834 4.77882 10.8956 4.56686 10.7393 4.41058C10.5831 4.2543 10.3711 4.1665 10.1501 4.1665H4.16675C3.50371 4.1665 2.86782 4.4299 2.39898 4.89874C1.93014 5.36758 1.66675 6.00346 1.66675 6.6665V15.8332C1.66675 16.4962 1.93014 17.1321 2.39898 17.6009C2.86782 18.0698 3.50371 18.3332 4.16675 18.3332H13.3334C13.9965 18.3332 14.6323 18.0698 15.1012 17.6009C15.57 17.1321 15.8334 16.4962 15.8334 15.8332V9.84984C15.8334 9.62882 15.7456 9.41686 15.5893 9.26058C15.4331 9.1043 15.2211 9.0165 15.0001 9.0165ZM18.2667 2.18317C18.1822 1.97955 18.0204 1.81773 17.8167 1.73317C17.7166 1.69047 17.609 1.66782 17.5001 1.6665H12.5001C12.2791 1.6665 12.0671 1.7543 11.9108 1.91058C11.7545 2.06686 11.6667 2.27882 11.6667 2.49984C11.6667 2.72085 11.7545 2.93281 11.9108 3.08909C12.0671 3.24537 12.2791 3.33317 12.5001 3.33317H15.4917L6.90841 11.9082C6.83031 11.9856 6.76831 12.0778 6.72601 12.1794C6.6837 12.2809 6.66192 12.3898 6.66192 12.4998C6.66192 12.6098 6.6837 12.7188 6.72601 12.8203C6.76831 12.9219 6.83031 13.014 6.90841 13.0915C6.98588 13.1696 7.07805 13.2316 7.1796 13.2739C7.28115 13.3162 7.39007 13.338 7.50008 13.338C7.61009 13.338 7.71901 13.3162 7.82056 13.2739C7.92211 13.2316 8.01428 13.1696 8.09175 13.0915L16.6667 4.50817V7.49984C16.6667 7.72085 16.7545 7.93281 16.9108 8.08909C17.0671 8.24537 17.2791 8.33317 17.5001 8.33317C17.7211 8.33317 17.9331 8.24537 18.0893 8.08909C18.2456 7.93281 18.3334 7.72085 18.3334 7.49984V2.49984C18.3321 2.39094 18.3094 2.28336 18.2667 2.18317Z" fill="#0D0C11"/>
</svg>

<svg width="20" height="20" fill="none" xmlns="http://www.w3.org/2000/svg"><path d="M15 9.017a.833.833 0 00-.833.833v5.983a.833.833 0 01-.834.833H4.167a.833.833 0 01-.834-.833V6.667a.833.833 0 01.834-.834h5.983a.833.833 0 100-1.667H4.167a2.5 2.5 0 00-2.5 2.5v9.167a2.5 2.5 0 002.5 2.5h9.166a2.5 2.5 0 002.5-2.5V9.85A.833.833 0 0015 9.017zm3.267-6.834a.833.833 0 00-.45-.45.833.833 0 00-.317-.067h-5a.833.833 0 000 1.667h2.992l-8.584 8.575a.832.832 0 000 1.184.833.833 0 001.184 0l8.575-8.584V7.5a.833.833 0 101.666 0v-5a.833.833 0 00-.066-.317z" fill="#0D0C11"/></svg>
